Dominus_Dark_Funeral/22/apps/falkon.svg

<svg xmlns="http://www.w3.org/2000/svg" width="24" height="24" viewBox="0 0 6.35 6.35"><defs><linearGradient id="a"><stop offset="0"/><stop offset="1" stop-opacity="0"/></linearGradient></defs><path class="ColorScheme-Text" d="M3.18.3A2.91 2.91 0 0 0 1 5.15l-.02-.13c0-.35.09-.78.3-1.3.04-.05.06-.11.09-.16l.01-.02a4.22 4.22 0 0 1 2.25-.82s-2.39.11-2.6.78c.12-.78.52-1.87 1.46-1.71.11-.02.2-.1.21-.19-.09-.04-.89-.1-1.14-.02.47-.2.88-.27 1.24-.26 1.24 0 1.85.91 1.95.96.6.13.98.54 1.03.93-.3-.01-.58 0-.85.03-.57.15-.74.43-.75.73-.01.59.69 1.3.86 1.46A2.91 2.91 0 0 0 3.17.3zm-.8 1.43zm1.64.32a.55.55 0 0 0-.26.03s.07.45.58.4c-.03-.3-.18-.4-.32-.43zm.59 1.15c-.75 0-2.39.26-3.58 2.15 0 .35.24.7.24.7S2.23 3.32 5 3.22c0 0-.15-.03-.4-.02z" color="#090d11" fill="#e6e6e6"/></svg>

<?xml version="1.0" encoding="UTF-8" standalone="no"?>
<svg
   xmlns:dc="http://purl.org/dc/elements/1.1/"
   xmlns:cc="http://creativecommons.org/ns#"
   xmlns:rdf="http://www.w3.org/1999/02/22-rdf-syntax-ns#"
   xmlns:svg="http://www.w3.org/2000/svg"
   xmlns="http://www.w3.org/2000/svg"
   xmlns:sodipodi="http://sodipodi.sourceforge.net/DTD/sodipodi-0.dtd"
   xmlns:inkscape="http://www.inkscape.org/namespaces/inkscape"
   width="24"
   height="24"
   viewBox="0 0 6.35 6.35"
   version="1.1"
   id="svg11"
   sodipodi:docname="falkon.svg"
   inkscape:version="0.92.4 (5da689c313, 2019-01-14)">
  <metadata
     id="metadata15">
    <rdf:RDF>
      <cc:Work
         rdf:about="">
        <dc:format>image/svg+xml</dc:format>
        <dc:type
           rdf:resource="http://purl.org/dc/dcmitype/StillImage" />
        <dc:title></dc:title>
      </cc:Work>
    </rdf:RDF>
  </metadata>
  <sodipodi:namedview
     pagecolor="#ffffff"
     bordercolor="#666666"
     borderopacity="1"
     objecttolerance="10"
     gridtolerance="10"
     guidetolerance="10"
     inkscape:pageopacity="0"
     inkscape:pageshadow="2"
     inkscape:window-width="1142"
     inkscape:window-height="480"
     id="namedview13"
     showgrid="false"
     inkscape:zoom="9.8333333"
     inkscape:cx="1.2711864"
     inkscape:cy="12"
     inkscape:window-x="0"
     inkscape:window-y="25"
     inkscape:window-maximized="0"
     inkscape:current-layer="svg11" />
  <defs
     id="defs7">
    <linearGradient
       id="a">
      <stop
         offset="0"
         id="stop2" />
      <stop
         offset="1"
         stop-opacity="0"
         id="stop4" />
    </linearGradient>
  </defs>
  <path
     class="ColorScheme-Text"
     d="M 3.18,0.3 A 2.91,2.91 0 0 0 1,5.15 L 0.98,5.02 C 0.98,4.67 1.07,4.24 1.28,3.72 1.32,3.67 1.34,3.61 1.37,3.56 L 1.38,3.54 A 4.22,4.22 0 0 1 3.63,2.72 c 0,0 -2.39,0.11 -2.6,0.78 C 1.15,2.72 1.55,1.63 2.49,1.79 2.6,1.77 2.69,1.69 2.7,1.6 2.61,1.56 1.81,1.5 1.56,1.58 2.03,1.38 2.44,1.31 2.8,1.32 4.04,1.32 4.65,2.23 4.75,2.28 5.35,2.41 5.73,2.82 5.78,3.21 5.48,3.2 5.2,3.21 4.93,3.24 4.36,3.39 4.19,3.67 4.18,3.97 4.17,4.56 4.87,5.27 5.04,5.43 A 2.91,2.91 0 0 0 3.17,0.3 Z M 2.38,1.73 Z M 4.02,2.05 A 0.55,0.55 0 0 0 3.76,2.08 c 0,0 0.07,0.45 0.58,0.4 C 4.31,2.18 4.16,2.08 4.02,2.05 Z M 4.61,3.2 c -0.75,0 -2.39,0.26 -3.58,2.15 0,0.35 0.24,0.7 0.24,0.7 0,0 0.96,-2.73 3.73,-2.83 0,0 -0.15,-0.03 -0.4,-0.02 z"
     id="path9"
     inkscape:connector-curvature="0"
     style="color:#090d11;fill:#e6e6e6" />
</svg>
